X: 15
T:Dingle Polka, The
M:2/4
L:1/8
R:Polka
K:D
AB c/2B/2A|eA cB|AB c/2B/2A|f2 f2|!
AB c/2B/2A|eA cB|AB c/2B/2A|1d2 d2:|2d2 de|!
|:fg/2f/2 ed|fg/2f/2 ed|AB c/2B/2A|g2 g2|!
fg/2f/2 ed|fg/2f/2 ed|AB c/2B/2A|1d2 de:|2d2 d2|]!
